X:1
T:Carol of the Bells Duet
T:Carol of the Bells Duet
T:Ocarina 
%%score 1 2
L:1/8
M:3/4
K:C
V:1 treble nm="Flute" snm="Fl."
V:2 treble nm="Flute" snm="Fl."
V:1
 c2 Bc A2 | c2 Bc A2 | c2 Bc A2 | c2 Bc A2 | c2 Bc A2 | c2 Bc A2 | c2 Bc A2 | c2 Bc A2 | c2 Bc A2 | %9
 c2 Bc A2 | c2 Bc A2 | c2 Bc A2 | A2 AA GF | E2 EE DC | D2 DD ED | A2 AA A2 |] %16
V:2
 z6 | z6 | z6 | z6 | A6 | G6 | F6 | E6 | A6 | G6 | F6 | E6 | E2 FF ED | E2 EE E2 | F2 FF GF | %15
 E2 EE E2 |] %16

